X:1
T:Title
%%score ( 1 2 ) { ( 3 4 7 ) | ( 5 6 8 ) }
L:1/8
Q:1/4=96
M:4/4
K:Eb
V:1 treble nm="Akkordion"
V:2 treble 
V:3 bass nm="Grand Piano"
V:4 bass 
V:7 bass 
V:5 bass 
V:6 bass 
V:8 bass 
V:1
 [EG]3- [EG]/[FA]/ [EG]>[DF] [EG]>[FA] | [Ac]4 [GB]4 | [FA]3- [FA]/[=EG]/ [FA]>[GB] [Bd]>[Ac] | %3
w: Thoro~Harris * * * * * *|||
 [GB]3 [_G=A] [F_A]4 | [EG]3- [EG]/[FA]/ [EG]>[DF] [EG]>[FA] | [Ac]4 [GB]2 [_DB][DB] | z4 z2 G2 | %7
w: ||||
 E6 z2 | z8 | z8 | z8 | z8 | z8 |[M:5/4] z10 |[M:4/4] z8 | z8 |] %16
w: |||||||||
V:2
 x8 | x8 | x8 | x8 | x8 | x8 | [CB]2 [CF][=EG] [CFA]2 D->[DF] | x8 | x8 | x8 | x8 | x8 | x8 | %13
[M:5/4] x10 |[M:4/4] x8 | x8 |] %16
V:3
 B,2 z z/ B,/ B,>B, [E,B,]>B, | E4 E4 | D4[K:treble] z4 | D8[K:bass] | %4
 B,2 z z/ B,/ B,>B, [E,B,]>D | E4 z4 | A,2 A,B, C2 B,>A, | G,6 z2 | A3- A/B/ c>[ce] (3[df]ec | %9
 [EGB]4 [B,EG]4 | [DFA]2 [DFA]2 [DFA]3/2[GB]/4c/4 [DFB]>[B,DF] | B,3- [B,A] [_DGB]4 | %12
 [Cce]3- [Cce]/[Cce]/ [Cdf]>[Cce] [DBd]>[EAc] |[M:5/4] [EGB]4 [Ee]6 | %14
[M:4/4] [CF]2 [C=EG]2 [CFB]>[CFA] [DA]>[DF] | [G,E]6 z2 |] %16
V:4
 z2 B,,2 z4 | z2 B,,2 z2 B,,2 | z2 B,,>[K:treble]C D>D F>D | z4[K:bass] B,2 z2 | z2 B,,2 z4 | %5
 z2 B,,2 E2 G,G, | x8 | x8 | z4 z2 z z/ E/ | x8 | z4 z z/ D/ z2 | [EG]4 z4 | x8 |[M:5/4] x10 | %14
[M:4/4] x8 | x8 |] %16
V:5
 E,2 z z/ E,/ E,>E, z z/ E,/ | [E,B,]2 z2 [E,B,]2 z2 | z4 [D,B,]2 z2 | [B,,D,B,]2 z2 D,2 C,>D, | %4
 E,2 z z/ E,/ E,>E, z z/ E,/ | [E,B,]2 z2 [E,B,]2 =E,E, | F,2 A,,G,, F,,2 B,,2 | E,6 z2 | %8
 [A,CE]3- [A,CE]/[A,EG]/ [A,EA]>[A,E] (3z cA[K:bass] | E,4 E,4 | B,,2 B,,2 B,,3/2 z/4 A/4 B,,>B,, | %11
 z2 z F E,4 | A,,3- A,,/A,,/ A,,>A,, A,,>A,, |[M:5/4] E,4 [C,G,]6 | %14
[M:4/4] A,,2 G,,2 F,,>F,, [B,,F,]>[B,,A,] | [E,,E,]6 z2 |] %16
V:6
 z4 z2 B,,2 | x8 | [B,,D,B,]2 z z/ B,,/ B,,>B,, B,,>B,, | z4 z z/ B,,/- B,,2 | z4 z2 B,,2 | x8 | %6
 x8 | x8 | z4 z2 C>[K:bass]A, | x8 | z4 z z/ B,,/ z2 | E,4 z4 | x8 |[M:5/4] x10 |[M:4/4] x8 | x8 |] %16
V:7
 x8 | x8 | x7/2[K:treble] x9/2 | z2[K:bass] B,,4 z2 | x8 | x8 | x8 | x8 | x8 | x8 | x8 | x8 | x8 | %13
[M:5/4] x10 |[M:4/4] x8 | x8 |] %16
V:8
 x8 | x8 | x8 | x8 | x8 | x8 | x8 | x8 | z4 z2 A,2[K:bass] | x8 | x8 | x8 | x8 |[M:5/4] x10 | %14
[M:4/4] x8 | x8 |] %16

